ix/house_bold.svg

<svg viewBox="0 0 24 24" fill="none" xmlns="http://www.w3.org/2000/svg" height="1em" width="1em">
  <path d="M22 21.2488H21V9.97875C21 9.35875 20.72 8.77875 20.23 8.39875L19 7.43875L18.98 4.98875C18.98 4.43875 18.53 3.99875 17.98 3.99875H14.57L13.23 2.95875C12.51 2.38875 11.49 2.38875 10.77 2.95875L3.77 8.39875C3.28 8.77875 3 9.35875 3 9.96875L2.95 21.2488H2C1.59 21.2488 1.25 21.5888 1.25 21.9988C1.25 22.4088 1.59 22.7488 2 22.7488H22C22.41 22.7488 22.75 22.4088 22.75 21.9988C22.75 21.5888 22.41 21.2488 22 21.2488ZM6.5 12.7487V11.2487C6.5 10.6987 6.95 10.2487 7.5 10.2487H9.5C10.05 10.2487 10.5 10.6987 10.5 11.2487V12.7487C10.5 13.2987 10.05 13.7487 9.5 13.7487H7.5C6.95 13.7487 6.5 13.2987 6.5 12.7487ZM14.5 21.2488H9.5V18.4987C9.5 17.6687 10.17 16.9987 11 16.9987H13C13.83 16.9987 14.5 17.6687 14.5 18.4987V21.2488ZM17.5 12.7487C17.5 13.2987 17.05 13.7487 16.5 13.7487H14.5C13.95 13.7487 13.5 13.2987 13.5 12.7487V11.2487C13.5 10.6987 13.95 10.2487 14.5 10.2487H16.5C17.05 10.2487 17.5 10.6987 17.5 11.2487V12.7487Z" fill="#292D32"/>
</svg>

<svg viewBox="0 0 24 24" fill="none" xmlns="http://www.w3.org/2000/svg" height="1em" width="1em">
  <path d="M22 21.249h-1V9.979c0-.62-.28-1.2-.77-1.58L19 7.439l-.02-2.45c0-.55-.45-.99-1-.99h-3.41l-1.34-1.04c-.72-.57-1.74-.57-2.46 0l-7 5.44c-.49.38-.77.96-.77 1.57l-.05 11.28H2c-.41 0-.75.34-.75.75s.34.75.75.75h20c.41 0 .75-.34.75-.75s-.34-.75-.75-.75Zm-15.5-8.5v-1.5c0-.55.45-1 1-1h2c.55 0 1 .45 1 1v1.5c0 .55-.45 1-1 1h-2c-.55 0-1-.45-1-1Zm8 8.5h-5v-2.75c0-.83.67-1.5 1.5-1.5h2c.83 0 1.5.67 1.5 1.5v2.75Zm3-8.5c0 .55-.45 1-1 1h-2c-.55 0-1-.45-1-1v-1.5c0-.55.45-1 1-1h2c.55 0 1 .45 1 1v1.5Z" fill="#292D32"/>
</svg>
